icons/file-sqlite-32.svg

<svg id="icons" xmlns="http://www.w3.org/2000/svg" viewBox="0 0 32 32"><path d="M19.3,2H5V30H27V9.699ZM26,29H6V3H18v8h8ZM19,10V3l7,7ZM15.00012,26H10.5A1.50164,1.50164,0,0,1,9,24.5v-9A1.50164,1.50164,0,0,1,10.5,14h8.43164a11.76746,11.76746,0,0,0-.78528,1H10.5a.501.501,0,0,0-.5.5v9a.501.501,0,0,0,.5.5h4.52173C15.00775,25.32867,14.99988,25.66144,15.00012,26Zm3.87311-5.55847A21.0329,21.0329,0,0,1,21.7,15.3a10.67079,10.67079,0,0,0-3.76446,5.27289A17.33078,17.33078,0,0,0,17.00006,28H16.083c-.823-9.40753,4.16241-15,6.0993-15,1.59473,0,2.63135,2.25714-.67139,7.45612a13.61572,13.61572,0,0,0-2.40118,1.14343,8.16714,8.16714,0,0,1,2.0752-.64227c-.81739,1.23828-1.52295,2.10437-1.52295,2.10437a3.64337,3.64337,0,0,0-2.07325,1.93652A26.142,26.142,0,0,1,18.87323,20.44153Z"/><path fill="none" d="M0 0h32v32H0z"/></svg>

<svg xmlns="http://www.w3.org/2000/svg" viewBox="0 0 32 32"><path d="M19.3 2H5v28h22V9.699zM26 29H6V3h12v8h8zm-7-19V3l7 7zm-4 16h-4.5A1.502 1.502 0 0 1 9 24.5v-9a1.502 1.502 0 0 1 1.5-1.5h8.432a11.767 11.767 0 0 0-.786 1H10.5a.501.501 0 0 0-.5.5v9a.501.501 0 0 0 .5.5h4.522A23.46 23.46 0 0 0 15 26zm3.873-5.558A21.033 21.033 0 0 1 21.7 15.3a10.67 10.67 0 0 0-3.764 5.273A17.33 17.33 0 0 0 17 28h-.917c-.823-9.408 4.162-15 6.1-15 1.594 0 2.63 2.257-.672 7.456A13.616 13.616 0 0 0 19.11 21.6a8.167 8.167 0 0 1 2.075-.643c-.817 1.239-1.523 2.105-1.523 2.105a3.643 3.643 0 0 0-2.073 1.936 26.142 26.142 0 0 1 1.284-4.556z"/><path fill="none" d="M0 0h32v32H0z"/></svg>
